X:45091
T: Sir Henry Daniel of Gooch
C: Eric Allan
B: RSCDS 45-9
R: air
Z: 2005 John Chambers <jc:trillian.mit.edu>
M: C
L: 1/8
%--------------------
K: D
DE \
|:"D"F2ED "A7"A2F2 | "Bm"D3D "F#m"d2cA \
| "G"[B2D2]AG "D/F#"[d2F2]F2 | "Em7"[A2-E2][A2D2] "A7"[AC]BAG |
| "D"F2ED "A/C#"A2c2 | "Bm"d2cd "G"B2AG \
| "D"FEFA "/E"GF"/F#"ED | "G"EFGA "A7"B2A2 ||
| "D"[A2F2][f2A2] "A7"[e2G2][f2A2] | "Bm"[d3F3]F "F#m"[c3F3]d \
| "G"B2AG "D/F#"A2D2 | "Em"GFGA "A7"E2FG | "D"A2f2 "F#7"e2c2 |
| "Bm"d2D2 "G"cBAG \
|1 "D"F2D2 "/E"GF"/F#"ED | "G"EFGA "A7"B2A2 \
:|2"D"F2D2 "A7"GFEF | "Em7"D4 "D"D2 |]
